assets/icon/VIP_avatar.svg

<svg fill="none" height="25" viewBox="0 0 25 25" width="25" xmlns="http://www.w3.org/2000/svg"><path d="m20.5138.866437c-.2151-.323684-.5388-.64671-.9704-.64671h-14.01116c-.43158 0-.8625.215789-.97039.64671l-4.311185 7.005263c-.2157895.43158-.107895.97039.107895 1.29342l11.20924 12.82498c.4302.4323 1.0776.5395 1.6164.1086l.1073-.1086 11.3171-12.93287c.3236-.32303.3236-.86251.1079-1.29343z" fill="#f7cc95"/><path d="m24.6086 9.07759-11.3172 12.93351-.1072.1073c-.15.1204-.3092.1941-.4678.2355v-22.11513h6.827c.4309 0 .7546.323684.9704.647368l4.2033 6.897372c.2151.43092.2151.97039-.1085 1.29408z" fill="#f4c485"/><path d="m20.0928 9.775-6.5731 7.3296c-.4322.4309-1.1861.5388-1.6184.1073l-6.68156-7.4369c-.10722-.10921-.19013-.23986-.24329-.38337-.05317-.14352-.07539-.29665-.0652-.44936s.05256-.30153.12431-.43671c.07176-.13518.1713-.25366.29207-.34766.10926-.10718.23995-.19004.38349-.24316.14354-.05311.29669-.07526.44939-.06501.15271.01025.30153.05268.43668.12449.13516.07182.25359.17141.34755.29223l5.82106 6.35855 5.8197-6.35855c.4309-.43224 1.1862-.53947 1.6171-.10855.1079.10855.2152.32434.3237.53947-.0013.32369-.1099.75461-.4335 1.07763z" fill="#835023"/></svg>

<svg width="25" height="25" viewBox="0 0 25 25" fill="none" xmlns="http://www.w3.org/2000/svg">
<path d="M20.5138 0.866437C20.2987 0.542753 19.975 0.219727 19.5434 0.219727H5.53224C5.10066 0.219727 4.66974 0.435516 4.56185 0.866437L0.250665 7.8717C0.0348755 8.30328 0.14277 8.84209 0.35856 9.16512L11.5678 21.9901C11.998 22.4224 12.6454 22.5296 13.1842 22.0987L13.2915 21.9901L24.6086 9.05723C24.9322 8.7342 24.9322 8.19472 24.7165 7.7638L20.5138 0.866437Z" fill="#F7CC95"/>
<path d="M24.6086 9.07759L13.2914 22.0111L13.1842 22.1184C13.0342 22.2388 12.875 22.3125 12.7164 22.3539V0.23877H19.5434C19.9743 0.23877 20.298 0.562454 20.5138 0.886138L24.7171 7.78351C24.9322 8.21443 24.9322 8.7539 24.6086 9.07759Z" fill="#F4C485"/>
<path d="M20.0928 9.775L13.5197 17.1046C13.0875 17.5355 12.3336 17.6434 11.9013 17.2119L5.21974 9.775C5.11252 9.66579 5.02961 9.53514 4.97645 9.39163C4.92328 9.24811 4.90106 9.09498 4.91125 8.94227C4.92144 8.78956 4.96381 8.64074 5.03556 8.50556C5.10732 8.37038 5.20686 8.2519 5.32763 8.1579C5.43689 8.05072 5.56758 7.96786 5.71112 7.91474C5.85466 7.86163 6.00781 7.83948 6.16051 7.84973C6.31322 7.85998 6.46204 7.90241 6.59719 7.97422C6.73235 8.04604 6.85078 8.14563 6.94474 8.26645L12.7658 14.625L18.5855 8.26645C19.0164 7.83421 19.7717 7.72698 20.2026 8.1579C20.3105 8.26645 20.4178 8.48224 20.5263 8.69737C20.525 9.02106 20.4164 9.45198 20.0928 9.775Z" fill="#835023"/>
</svg>
